X: 150
T: Dr. Gilbert's
R: reel
M: 4/4
L: 1/8
K: Edor
gf|"Em"eBBA B3c|"Bm"dBA=c BAGF|"Em"EDB,D G2 FG|EDB,E DB,A,G,|
B,E (3EEE EDB,D|GE (3EEE EFGA|(3Bcd ed Bdgb|"Am"afdf efgf:|
"Am"e~B3 g~B3|"Bm"defa afdf|"Em"(3ggg bg fgaf|egfd edB2|
"Am"afdf edB^c|"Bm"dBAF AFDF|"Em"EA=cA Bdgb|"Am"afdf efgf:|


